X: 21851
T: THE WHEATSHEAF SCHOTTISCHE (NEW)
C: Composed by D. Wilkinson, Edinburgh
N: Bowing and Fingering arranged by W.B. Laybourn
R: shottish
B: K\"ohler's Violin Repository, v.2, 1885 p.185 #1
F: http://www.archive.org/details/klersviolinrepos02rugg
Z: 2012 John Chambers <jc:trillian.mit.edu>
M: 2/4
L: 1/16
K: F
u(A>B) |\
c2f2f2 (A>B) | c2G2 G4 | A2d2 d2F>G | A2c2 c4 |\
c2a2 a2g>f | e2d2 d4 | (g>f)e>d c>BA>G | [F2A,2][F2A,2][F2A,2] :|
K: Bb
|: u(D>E) |\
F2(F>B d2)c>B | A2G2 G4 | G2(c>d) e2d>c | A2F2 F4 |\
F2(F>B d2)c>B | A2G2 G4 | F>GA2 c>BA2 | [B2D2][B2D2][B2D2] :|

%%sep 2 1 500

